X:375
T:Rondo in Blue Beard. RH.376
R:rondo
S:Rev.R.Harrison’s MS,c1815,Cumbria
N:There was an unnecessary quaver rest at the end. PJH.
O:England
A:Temple Sowerby,Cumbria
Z:vmp.Simon Wilson. Review PJH, 2008.
M:2/4
L:1/8
Q:1/4=100
K:Am
E|Ae ed|d/c/B/c/ AA|Bc de|d/c/B/c/ AE|!
Ae ed|d/c/B/c/ AA|Bc de|Ac Az|!
e2 za|e2 za|ed cB|Aa ae|!
ae’ e’d’|d’/c’/b/c’/ aa|bc’ d’e’|d’/c’/b/c’/ aa|!
Ae ed|d/c/B/c/ AA|ed cB|AA A|]

